Develop Presets/03 GRADATIONSKURVEN/ANALOG - STANDARD.lrtemplate
s = {
	id = "CBA3F66B-C301-4C50-9B08-B13C371310E8",
	internalName = "ANLALOG - STANDARD",
	title = "ANLALOG - STANDARD",
	type = "Develop",
	value = {
		settings = {
			ParametricDarks = 0,
			ParametricHighlightSplit = 75,
			ParametricHighlights = 0,
			ParametricLights = 0,
			ParametricMidtoneSplit = 50,
			ParametricShadowSplit = 25,
			ParametricShadows = 0,
			ProcessVersion = "6.7",
			ToneCurveName2012 = "Custom",
			ToneCurvePV2012 = {
				0,
				42,
				91,
				90,
				159,
				164,
				255,
				232,
			},
			ToneCurvePV2012Blue = {
				0,
				0,
				255,
				255,
			},
			ToneCurvePV2012Green = {
				0,
				0,
				255,
				255,
			},
			ToneCurvePV2012Red = {
				0,
				0,
				255,
				255,
			},
		},
		uuid = "4ECE6BA7-7498-457D-A215-F478E447A8AE",
	},
	version = 0,
}
