Develop Presets/03 GRADATIONSKURVEN/ANALOG - FRIENDLY.lrtemplate
s = {
	id = "36E5277E-3652-4108-BBB0-99931AD5C845",
	internalName = "ANALOG - FRIENDLY",
	title = "ANALOG - FRIENDLY",
	type = "Develop",
	value = {
		settings = {
			ParametricDarks = 0,
			ParametricHighlightSplit = 75,
			ParametricHighlights = 0,
			ParametricLights = 0,
			ParametricMidtoneSplit = 50,
			ParametricShadowSplit = 25,
			ParametricShadows = 0,
			ProcessVersion = "6.7",
			ToneCurveName2012 = "Custom",
			ToneCurvePV2012 = {
				0,
				42,
				89,
				92,
				161,
				172,
				255,
				232,
			},
			ToneCurvePV2012Blue = {
				0,
				0,
				255,
				255,
			},
			ToneCurvePV2012Green = {
				0,
				0,
				255,
				255,
			},
			ToneCurvePV2012Red = {
				0,
				0,
				255,
				255,
			},
		},
		uuid = "B1023468-4291-4EAC-9C00-75F9E65B1C0F",
	},
	version = 0,
}
