Develop Presets/03 GRADATIONSKURVEN/FRIENDLY.lrtemplate
s = {
	id = "8581D5DA-5478-43B5-B849-6F81F3BCE8D8",
	internalName = "FRIENDLY",
	title = "FRIENDLY",
	type = "Develop",
	value = {
		settings = {
			ParametricDarks = 0,
			ParametricHighlightSplit = 75,
			ParametricHighlights = 0,
			ParametricLights = 0,
			ParametricMidtoneSplit = 50,
			ParametricShadowSplit = 25,
			ParametricShadows = 0,
			ProcessVersion = "6.7",
			ToneCurveName2012 = "Custom",
			ToneCurvePV2012 = {
				0,
				0,
				53,
				53,
				133,
				149,
				255,
				255,
			},
			ToneCurvePV2012Blue = {
				0,
				0,
				255,
				255,
			},
			ToneCurvePV2012Green = {
				0,
				0,
				255,
				255,
			},
			ToneCurvePV2012Red = {
				0,
				0,
				255,
				255,
			},
		},
		uuid = "1CCD1BF0-C227-4B5B-8A0B-360660F5B953",
	},
	version = 0,
}
