Develop Presets/03 GRADATIONSKURVEN/HARD.lrtemplate
s = {
	id = "8076426D-E20D-42CD-B0AF-9F4D55F64D6E",
	internalName = "HARD",
	title = "HARD",
	type = "Develop",
	value = {
		settings = {
			ParametricDarks = 0,
			ParametricHighlightSplit = 75,
			ParametricHighlights = 0,
			ParametricLights = 0,
			ParametricMidtoneSplit = 50,
			ParametricShadowSplit = 25,
			ParametricShadows = 0,
			ProcessVersion = "6.7",
			ToneCurveName2012 = "Custom",
			ToneCurvePV2012 = {
				0,
				0,
				68,
				52,
				166,
				189,
				255,
				255,
			},
			ToneCurvePV2012Blue = {
				0,
				0,
				255,
				255,
			},
			ToneCurvePV2012Green = {
				0,
				0,
				255,
				255,
			},
			ToneCurvePV2012Red = {
				0,
				0,
				255,
				255,
			},
		},
		uuid = "8420115B-9BDC-42EF-AC70-7E6DDF4E5B61",
	},
	version = 0,
}
