Develop Presets/03 GRADATIONSKURVEN/STANDARD.lrtemplate
s = {
	id = "5C2380D1-8951-4E83-9EDE-0C95C2D24E9B",
	internalName = "STANDARD",
	title = "STANDARD",
	type = "Develop",
	value = {
		settings = {
			ParametricDarks = 0,
			ParametricHighlightSplit = 75,
			ParametricHighlights = 0,
			ParametricLights = 0,
			ParametricMidtoneSplit = 50,
			ParametricShadowSplit = 25,
			ParametricShadows = 0,
			ProcessVersion = "6.7",
			ToneCurveName2012 = "Custom",
			ToneCurvePV2012 = {
				0,
				0,
				73,
				62,
				159,
				167,
				255,
				255,
			},
			ToneCurvePV2012Blue = {
				0,
				0,
				255,
				255,
			},
			ToneCurvePV2012Green = {
				0,
				0,
				255,
				255,
			},
			ToneCurvePV2012Red = {
				0,
				0,
				255,
				255,
			},
		},
		uuid = "BC5DCEF9-2290-4299-BC71-6656528C55BC",
	},
	version = 0,
}
